X:1120
T:Banish Misfortune
R:Jig
C:Trad.
Z:Added by Alf Warnock
M:6/8
L:1/8
K:G
|:fed =cAG|Add cAG|F2D DED|FEF GFG|
A2A cAG|AGA cde|fed cAG|Ad^c d2z:|
|:f2d d^cd|f2g agf|e2=c cBc|ede gec|
f2g agf|e2f gfe|fed cAG|Ad^c d2e:||
f2g e2f|ded =c2d|A3 AGA|F2A GFD|
cdc cAG|AGA cde|fed cAG|Add d3:|]


